frontend/public/svg/interface/cut.svg

<svg width="145" height="117" viewBox="0 0 145 117" fill="none" xmlns="http://www.w3.org/2000/svg">
<g clip-path="url(#clip0)">
<path d="M29.3753 35.4485C39.7984 40.4535 49.9374 44.9736 59.7171 50.1684C64.2577 52.5792 67.708 52.383 72.1759 49.9611C93.0319 38.6569 114.095 27.731 135.088 16.681C136.152 16.0842 137.257 15.5654 138.396 15.1282C139.326 14.7157 140.374 14.6557 141.345 14.9594C142.315 15.263 143.143 15.9095 143.673 16.7788C144.204 17.6481 144.402 18.681 144.229 19.6853C144.057 20.6896 143.527 21.5968 142.737 22.2385C141.908 22.9752 140.985 23.5978 139.993 24.0898C126.721 31.0032 113.441 37.8994 100.152 44.7786C92.7686 48.6019 85.3681 52.3908 77.9794 56.2043C77.2081 56.6021 76.4661 57.0577 75.3848 57.6707C76.4576 58.2882 77.238 58.7972 78.0676 59.2067C95.6674 67.8986 113.27 76.5865 130.875 85.2718C132.485 86.0128 134.02 86.9066 135.461 87.9401C137.184 89.2544 137.65 91.0861 137.03 92.6513C136.358 94.3471 134.603 95.3384 132.348 94.8964C130.614 94.5389 128.933 93.9643 127.343 93.1849C117.354 88.3697 107.354 83.5721 97.4486 78.5872C87.7396 73.7018 78.1331 68.611 68.4955 63.5838C67.0685 62.8402 65.825 62.352 64.1571 63.2334C53.374 68.9334 42.5351 74.528 31.7201 80.168C31.4 80.4007 31.1039 80.6646 30.836 80.9565C31.9504 81.5298 32.9117 82.001 33.8484 82.51C41.8384 86.839 44.8332 95.1284 41.3824 103.505C39.9554 106.966 37.8317 109.973 34.6209 111.961C28.6014 115.686 22.1078 117.656 14.9824 116.26C7.82458 114.858 1.66761 107.94 0.952806 100.705C0.870614 99.9326 0.91931 99.1519 1.09682 98.396C2.58871 92.416 5.28253 87.1074 10.4587 83.5311C14.0391 81.1073 17.7413 78.87 21.5506 76.827C33.118 70.4811 44.7437 64.2416 56.673 57.7819C55.9618 57.2573 55.2219 56.7731 54.4566 56.3317C42.435 50.3517 30.4058 44.391 18.369 38.4496C16.7578 37.7122 15.106 37.067 13.4218 36.5171C7.32836 34.3403 3.53313 29.9677 1.49832 23.9558C0.828527 21.9398 0.755303 19.7726 1.2875 17.7158C2.07468 14.3156 3.64199 11.146 5.865 8.45871C8.088 5.77145 10.9055 3.6404 14.0939 2.23478C17.2823 0.829165 20.7537 0.187739 24.2327 0.361271C27.7117 0.534802 31.1024 1.51858 34.1357 3.23454C42.2004 7.73188 45.0142 16.6167 40.9874 24.9861C39.2534 28.7567 36.3206 31.8447 32.6484 33.7669C31.6864 34.2817 30.7128 34.7673 29.3753 35.4485ZM19.1552 107.747C20.4752 107.652 21.3716 107.665 22.2389 107.512C26.5848 106.745 30.6421 105.425 33.1232 101.348C35.6412 97.2097 34.9835 92.8593 31.4283 90.0337C24.2555 84.3326 15.0635 86.6921 11.0049 94.782C7.89074 100.989 12.8912 108.49 19.1552 107.747ZM20.0341 28.2582C20.811 28.2411 21.5862 28.1777 22.3556 28.0684C26.577 27.2929 30.5364 26.0137 33.011 22.1001C36.0239 17.3349 34.8272 12.3956 29.95 9.62013C27.5488 8.19916 24.7939 7.49157 22.0066 7.57971C14.3857 7.90471 11.291 11.8009 10.0806 19.3285C9.28015 24.3095 14.0672 28.3602 20.0341 28.2582Z" fill="black"/>
</g>
<defs>
<clipPath id="clip0">
<rect width="144" height="117" fill="white" transform="translate(0.777344)"/>
</clipPath>
</defs>
</svg>

<svg xmlns="http://www.w3.org/2000/svg" width="145" height="117" fill="none" viewBox="0 0 145 117"><g clip-path="url(#a)"><path fill="#000" d="M29.375 35.449c10.423 5.005 20.562 9.525 30.342 14.72 4.54 2.41 7.991 2.214 12.459-.208 20.856-11.304 41.919-22.23 62.912-33.28a25 25 0 0 1 3.308-1.553 4.19 4.19 0 0 1 5.277 1.65 4.206 4.206 0 0 1-.936 5.46 12.5 12.5 0 0 1-2.744 1.852 17592 17592 0 0 1-39.841 20.689c-7.383 3.823-14.784 7.612-22.173 11.425-.77.398-1.513.854-2.594 1.467 1.073.617 1.853 1.126 2.683 1.536q26.4 13.038 52.807 26.065a28 28 0 0 1 4.586 2.668c1.723 1.314 2.189 3.146 1.569 4.711-.672 1.696-2.427 2.687-4.682 2.245a21 21 0 0 1-5.005-1.711c-9.989-4.815-19.989-9.613-29.894-14.598-9.71-4.885-19.316-9.976-28.953-15.003-1.427-.744-2.671-1.232-4.339-.35-10.783 5.7-21.622 11.294-32.437 16.934q-.481.35-.884.788c1.114.574 2.076 1.045 3.012 1.554 7.99 4.329 10.985 12.618 7.534 20.995-1.427 3.461-3.55 6.468-6.761 8.456-6.02 3.725-12.513 5.695-19.639 4.299-7.157-1.402-13.314-8.32-14.03-15.555a6.9 6.9 0 0 1 .145-2.309c1.492-5.98 4.186-11.289 9.362-14.865a126 126 0 0 1 11.092-6.704c11.567-6.346 23.193-12.585 35.122-19.045a24 24 0 0 0-2.216-1.45q-18.033-8.97-36.088-17.882a47 47 0 0 0-4.947-1.933c-6.094-2.177-9.889-6.55-11.924-12.561a11.03 11.03 0 0 1-.21-6.24c.787-3.4 2.354-6.57 4.577-9.257a22.4 22.4 0 0 1 8.229-6.224 22.37 22.37 0 0 1 20.042 1c8.064 4.497 10.878 13.382 6.851 21.751a18.75 18.75 0 0 1-8.339 8.78c-.962.516-1.935 1.001-3.273 1.683m-10.22 72.298c1.32-.095 2.217-.082 3.084-.235 4.346-.767 8.403-2.087 10.884-6.164 2.518-4.138 1.86-8.489-1.695-11.314-7.172-5.701-16.365-3.342-20.423 4.748-3.114 6.207 1.886 13.708 8.15 12.965m.88-79.489q1.165-.025 2.32-.19c4.222-.775 8.181-2.054 10.656-5.968 3.013-4.765 1.816-9.704-3.061-12.48a14.7 14.7 0 0 0-7.943-2.04c-7.621.325-10.716 4.22-11.926 11.748-.8 4.982 3.986 9.032 9.953 8.93"/></g><defs><clipPath id="a"><path fill="#fff" d="M.777 0h144v117h-144z"/></clipPath></defs></svg>
